app/dist/common/images/financial-institutions.svg

<svg height="18" viewBox="0 0 18 18" width="18" xmlns="http://www.w3.org/2000/svg"><path d="m0 0h18v18h-18z" fill="#f0f3fa"/><path d="m8.06 6.75.94 2.25-2.25-.94-.75-2.06zm1.88 0-.94 2.25 2.25-.94.75-2.06zm-1.88 4.5.94-2.25-2.25.94-.75 2.06zm1.88 0-.94-2.25 2.25.94.75 2.06z" fill="#203d83"/><path d="m8.06 6.75.94 2.25.94-2.25-.94-3.75zm0 4.5.94-2.25.94 2.25-.94 3.75zm3.19-3.19-2.25.94 2.25.94 3.75-.94zm-4.5 0 2.25.94-2.25.94-3.75-.94z" fill="#b6b6b6"/></svg>

<!-- by TradingView --><svg width="18" height="18" viewBox="0 0 18 18" xmlns="http://www.w3.org/2000/svg"><path fill="#F0F3FA" d="M0 0h18v18H0z"/><path d="M8.06 6.75 9 9l-2.25-.94L6 6l2.06.75ZM9.94 6.75 9 9l2.25-.94L12 6l-2.06.75ZM8.06 11.25 9 9l-2.25.94L6 12l2.06-.75ZM9.94 11.25 9 9l2.25.94L12 12l-2.06-.75Z" fill="#203D83"/><path d="M8.06 6.75 9 9l.94-2.25L9 3l-.94 3.75ZM8.06 11.25 9 9l.94 2.25L9 15l-.94-3.75ZM11.25 8.06 9 9l2.25.94L15 9l-3.75-.94ZM6.75 8.06 9 9l-2.25.94L3 9l3.75-.94Z" fill="#B6B6B6"/></svg>
